X: 203
M: 6/8
L: 1/8
K: D
|: A |\
d>ed f2g | aga fed | BcB c2d | efd cBA |\
d>ed f2g | a2g fed | (B/c/dB) (c/d/ec) | d3 D2 :|

